X: 1
T: Good-bye Liza Jane
M: C|
L: 1/8
B: Kuntz - Ragged but Right
S: Bobby Hicks (Brody, Phillips): Plank Road String Band via Delaware Gap String Band (Kuntz)
Z: AK/Fiddler's Companion
F: http://www.ibiblio.org/fiddlers/GOO_GOW.htm
K: G
(G \
| G)FG2 A2AA | [GB]A[G2B2] [G2c2][G2c2] | BA G4 G2 | FED"(#)"C D2DF \
| GFGB AGAc | BABd cBAc | BAGB AGFA | G2 [G4B4] [GB] :|
|: [Dd] \
| [D4d4] [e3e3]e | B2 (d4 d) (3D/E/F/ | G2[G2B2] [G3A3][GA] \
| [G2B2] [G4B4] [GB] (3A/B/c/ | d2d2 e3d | B2 d4 A2 | BAGB AGFA |1 GEDE G3 :|2 GEDB, G,3 |]
